X: 1848
T: Arianna's Tower
R: reel
M: 4/4
K: Adorian
|:e2AB cBAB|E2ED EFGE|Aeed e2dc|B2BA GABG|
eA~A2 cBAB|E2ED EFGE|AEcE BAGB|A2AG ABcd:|
|:eaag edcd|eggf g3e|aece ABcA|Bgge d2cd|
e2ag edcd|B2gf g3^g|aecA f2ed|cAAG ABcd:|

